X:1
T: All Alive
C:
R:Jig
Q:180
K:Gm
M:6/8
L:1/16
GA|B2d2B2 c2A2c2|B2G2G2 G4A2|B2d2B2 c2d2B2|A2F2F2 F4A2|B2A2B2 c2B2c2|d4g2 g2f2e2|d2c2B2 ABc2A2|B2G2G2 G4GA|
B2d2B2 c2A2c2|B2G2G2 G4A2|B2d2B2 c2d2B2|A2F2F2 F4A2|B2A2B2 c2B2c2|d4g2 g2f2e2|d2c2B2 ABc2A2|B2G2G2 G4A2|
B2d2g2 f2d2B2|f2d2B2 f2d2B2|A2c2f2 c2A2F2|c2A2F2 c2A2F2|B2d2g2 f2d2B2|b2a2g2 f2d2B2|cde2c2 ABc2A2|B2G2G2 G4A2|
B2d2g2 f2d2B2|f2d2B2 f2d2B2|A2c2f2 c2A2F2|c2A2F2 c2A2F2|B2d2g2 f2d2B2|b2a2g2 f2d2B2|cde2c2 ABc2A2|B2G2G2 G4||
